!!!COM: Mozart, Wolfgang Amadeus
!!!OTL: String Quartet No. 9 in A Major
!!!OMD: Rondo: Allegro
!!!OMV: 4
!!!SCT1: K<sup>1</sup> 169
!!!SCA: Chronologisch-thematisches Verzeichnis sämtlicher Tonwerke Wolfgang Amade Mozarts (L. von Köchel; 1862, 2/1905, 3/1937, 1947)
!!!SCT2: K<sup>6</sup> 169
!!!YOR: Breitkopf & Härtel Edition
!!!ENC: Frances Bennion
!!!CDT: 1756/1/27/-1791/12/5/
!!!OCY: Österreich
!!!YEC: Copyright (c) 1994, 2000 Center for Computer Assisted Research in the Humanities
!!!YEM: Rights to all derivative editions reserved.
!!!YEM: Refer to licensing agreement for further details.
!!!YEN: United States of America
**kern	**kern	**kern	**kern
*k[f#c#g#]	*k[f#c#g#]	*k[f#c#g#]	*k[f#c#g#]
*A:	*A:	*A:	*A:
*clefC	*clefF	*clefG	*clefG
*M2/4	*M2/4	*M2/4	*M2/4
4r	4r	4r	4r
4r	4r	4r	8.a
.	.	.	16aa
=1	=1	=1	=1
2r	2r	2r	8.f#
.	.	.	16ff#
.	.	.	8.d
.	.	.	16dd
=2	=2	=2	=2
4r	4r	4r	8.B
.	.	.	16b
[4D	16B	4f#	16dd
.	16c#	.	16cc#
.	16d	.	16b
.	16c#	.	16a
=3	=3	=3	=3
8D]	8B	4e	8g#
8C#	8c#	.	8a
8BB	8e	8g#	8dd
8AA	8e	8a	8cc#
=4	=4	=4	=4
4E	4e	8a	8cc#
.	.	8g#	8b
4r	4r	4r	16a
.	.	.	16aa
.	.	.	16a
.	.	.	16aa
=5	=5	=5	=5
2r	2r	2r	16f#
.	.	.	16ff#
.	.	.	16f#
.	.	.	16ff#
.	.	.	16d
.	.	.	16dd
.	.	.	16d
.	.	.	16dd
=6	=6	=6	=6
4r	4r	4r	16B
.	.	.	16b
.	.	.	16B
.	.	.	16b
[4D	16B	4f#	16dd
.	16c#	.	16cc#
.	16d	.	16b
.	16c#	.	16a
=7	=7	=7	=7
8D]	8B	8.e	16g#
.	.	.	16e
16C#	16A	.	16a
16D	16f#	16b	16dd
8E	8e	8a	8cc#
8EE	8d	8g#	8b
=8	=8	=8	=8
4AA	4e 4c#	4a	4a
4A	8e	4r	8cc#
.	8f#	.	8dd#
=9	=9	=9	=9
4G#	2B	4.r	8ee
.	.	.	16dd#
.	.	.	16cc#
4D#	.	.	8b
.	.	8f#	8a
=10	=10	=10	=10
4E	4r	8f#	8a
.	.	8e	8g#
4A	8e	4r	8cc#
.	8f#	.	8dd#
=11	=11	=11	=11
4G#	2B	4.r	8ee
.	.	.	16dd#
.	.	.	16cc#
4D#	.	.	8b
.	.	8f#	8a
=12	=12	=12	=12
4E	2r	8f#	8a
.	.	8e	8g#
4r	.	16g#	8b
.	.	16f#	.
.	.	16g#	8ee
.	.	16e	.
=13	=13	=13	=13
2r	2r	16a	8cc#
.	.	16g#	.
.	.	16a	8ff#
.	.	16f#	.
.	.	16b	8dd#
.	.	16a	.
.	.	16b	8gg#
.	.	16g#	.
=14	=14	=14	=14
2r	2r	16cc#	8ee
.	.	16b	.
.	.	16cc#	8aa
.	.	16a	.
.	.	16dd#	8ff#
.	.	16cc#	.
.	.	16dd#	8bb
.	.	16b	.
=15	=15	=15	=15
2r	2r	8ee	8gg#
.	.	8a	16ff#
.	.	.	16ee
.	.	8b	16ee
.	.	.	32dd#
.	.	.	32ee
.	.	8B	16ff#
.	.	.	16dd#
=16	=16	=16	=16
8EE	8E	4e	4ee
8EE	8E	.	.
8EE	8E	4r	8ee
8EE	8E	.	16dd
.	.	.	16cc#
=17	=17	=17	=17
8EE	8E	4r	8b
8EE	8E	.	8r
8EE	8E	8e	8cc#
8EE	8E	16d	16b
.	.	16c#	16a
=18	=18	=18	=18
4EE	4E	8B	8g#
.	.	8r	8r
4r	4r	8c#	8ee
.	.	16B	16dd
.	.	16A	16cc#
=19	=19	=19	=19
2r	2r	8G#	8b
.	.	8G#	8b
.	.	8A	8cc#
.	.	16B	16b
.	.	16c#	16a
=20	=20	=20	=20
2r	2r	8B	8g#
.	.	4.r	8r
.	.	.	8.a
.	.	.	16aa
=21	=21	=21	=21
2r	2r	2r	8.f#
.	.	.	16ff#
.	.	.	8.d
.	.	.	16dd
=22	=22	=22	=22
4r	4r	4r	8.B
.	.	.	16b
[4D	16B	4f#	16dd
.	16c#	.	16cc#
.	16d	.	16b
.	16c#	.	16a
=23	=23	=23	=23
8D]	8B	4e	8g#
8C#	8c#	.	8a
8BB	8e	8g#	8dd
8AA	8e	8a	8cc#
=24	=24	=24	=24
4E	4e	8a	8cc#
.	.	8g#	8b
4r	4r	4r	16a
.	.	.	16aa
.	.	.	16a
.	.	.	16aa
=25	=25	=25	=25
2r	2r	2r	16f#
.	.	.	16ff#
.	.	.	16f#
.	.	.	16ff#
.	.	.	16d
.	.	.	16dd
.	.	.	16d
.	.	.	16dd
=26	=26	=26	=26
4r	4r	4r	16B
.	.	.	16b
.	.	.	16B
.	.	.	16b
[4D	16B	4f#	16dd
.	16c#	.	16cc#
.	16d	.	16b
.	16c#	.	16a
=27	=27	=27	=27
8D]	8B	8.e	16g#
.	.	.	16e
16C#	16A	.	16a
16D	16f#	16b	16dd
8E	8e	8a	8cc#
8EE	8d	8g#	8b
=28	=28	=28	=28
4AA	4e 4c#	4a	4a
4r	4r	4r	8.ee
.	.	.	16cc
=29	=29	=29	=29
4r	2r	4r	8a
.	.	.	8a
[4A	.	4cc	8ff
.	.	.	8ff
=30	=30	=30	=30
4A]	4r	8cc	8ee
.	.	8b	8dd
4G#	[4e	4b	8ee
.	.	.	8ee
=31	=31	=31	=31
8A	8e]	8a	8cc
8C	8e	4e	16b
.	.	.	16a
8BB	8d	.	8g#
8AA	16c	8e	8a
.	16A	.	.
=32	=32	=32	=32
4E	4G#	4e	4b
4r	4r	4r	8.ee
.	.	.	16cc
=33	=33	=33	=33
4r	4r	4r	8a
.	.	.	8a
4A	4a	4ee	8ccc
.	.	.	8ccc
=34	=34	=34	=34
4D#	4d#	4ff#	8ccc
.	.	.	8bb
4D	8d	4ff	8aa
.	8B	.	8gg#
=35	=35	=35	=35
8C	8c	8ee	16aa
.	.	.	16ee
8D	16d	16a	16ff
.	16f	16b	16dd
8E	8e	8a	8cc
8EE	8d	8g#	8b
=36	=36	=36	=36
4AA	4c	4a	4a
8.c	8.cc	8.cc	8.cc
16A	16a	16a	16a
=37	=37	=37	=37
8E	8e	8e	8e
8E	8e	8e	8e
8F	8f	8f	8f
8F	8f	8f	8f
=38	=38	=38	=38
4E	4e	4e	4e
4r	4r	8cc	8ee
.	.	8a	8ee
=39	=39	=39	=39
2r	2r	8b	8dd
.	.	8g#	16cc
.	.	.	16b
.	.	8a	8cc
.	.	8d#	16b
.	.	.	16a
=40	=40	=40	=40
4r	4r	4e	8g#
.	.	.	8b
8.c	8.c	8.cc	8.cc
16A	16A	16a	16a
=41	=41	=41	=41
8E	8E	8e	8e
8E	8E	8e	8e
8F	8F	8f	8f
8F	8F	8f	8f
=42	=42	=42	=42
2E	4E	4e	4e
.	4e	8g#	8b
.	.	8g#	8b
=43	=43	=43	=43
8A	4e	2a	8cc
8G	.	.	8cc#
8F#	8d	.	8dd
8F	8A	.	8dd#
=44	=44	=44	=44
4E	4B	4g#	4ee
4r	4r	4r	8.a
.	.	.	16aa
=45	=45	=45	=45
2r	2r	2r	8.f#
.	.	.	16ff#
.	.	.	8.d
.	.	.	16dd
=46	=46	=46	=46
4r	4r	4r	8.B
.	.	.	16b
[4D	16B	4f#	16dd
.	16c#	.	16cc#
.	16d	.	16b
.	16c#	.	16a
=47	=47	=47	=47
8D]	8B	4e	8g#
8C#	8c#	.	8a
8BB	8e	8g#	8dd
8AA	8e	8a	8cc#
=48	=48	=48	=48
4E	4e	8a	8cc#
.	.	8g#	8b
4r	4r	4r	16a
.	.	.	16aa
.	.	.	16a
.	.	.	16aa
=49	=49	=49	=49
2r	2r	2r	16f#
.	.	.	16ff#
.	.	.	16f#
.	.	.	16ff#
.	.	.	16d
.	.	.	16dd
.	.	.	16d
.	.	.	16dd
=50	=50	=50	=50
4r	4r	4r	16B
.	.	.	16b
.	.	.	16B
.	.	.	16b
[4D	16B	4f#	16dd
.	16c#	.	16cc#
.	16d	.	16b
.	16c#	.	16a
=51	=51	=51	=51
8D]	8B	8.e	16g#
.	.	.	16e
16C#	16A	.	16a
16D	16f#	16b	16dd
8E	8e	8a	8cc#
8EE	8d	8g#	8b
=52	=52	=52	=52
4AA	4e 4c#	4a	4a
8A	4r	16c#	8ee
.	.	16A	.
8A	.	16c#	8ee
.	.	16A	.
=53	=53	=53	=53
8A	[2a	16d	8.ff#
.	.	16A	.
8A	.	16d	.
.	.	16e	16gg#
8A	.	8f#	8aa
8A	.	16e	16gg#
.	.	16d	16ff#
=54	=54	=54	=54
8AA	2a]	16d	16ff#
.	.	16c#	16ee
8AA	.	16B	16dd
.	.	16A	16cc#
8AA	.	16G#	16b
.	.	16A	16a
8AA	.	16B	16g#
.	.	16c#	16a
=55	=55	=55	=55
8AA	4A	16f#	8dd
.	.	16e	.
8AA	.	16f#	8dd
.	.	16d	.
8AA	4B	16g#	8dd
.	.	16f#	.
8AA	.	16g#	8dd
.	.	16e	.
=56	=56	=56	=56
8AA	4A	4a	8b#
8A	.	.	8cc#
8A	4r	16c#	8ee
.	.	16A	.
8A	.	16c#	8ee
.	.	16A	.
=57	=57	=57	=57
8A	[2a	16d	8.ff#
.	.	16A	.
8A	.	16d	.
.	.	16e	16gg#
8A	.	16g#	8aa
.	.	16f#	.
8A	.	16e	16gg#
.	.	16d	16ff#
=58	=58	=58	=58
8AA	2a]	16d	16ff#
.	.	16c#	16ee
8AA	.	16f#	16dd
.	.	16e	16cc#
8AA	.	16d	16b
.	.	16c#	16a
8AA	.	16B	16g#
.	.	16c#	16a
=59	=59	=59	=59
8r	8r	8B	8dd
8GG#	8e	8r	8r
8r	8r	8A	8cc#
8AA	8e	8r	8r
=60	=60	=60	=60
8r	8r	8G#	8b
8EE	8e	4.r	8r
4r	4r	.	8.a
.	.	.	16aa
=61	=61	=61	=61
2r	2r	2r	8.f#
.	.	.	16ff#
.	.	.	8.d
.	.	.	16dd
=62	=62	=62	=62
4r	4r	4r	8.B
.	.	.	16b
[4D	16B	4f#	16dd
.	16c#	.	16cc#
.	16d	.	16b
.	16c#	.	16a
=63	=63	=63	=63
8D]	8B	4e	8g#
8C#	8c#	.	8a
8BB	8e	8g#	8dd
8AA	8e	8a	8cc#
=64	=64	=64	=64
4E	4e	8a	8cc#
.	.	8g#	8b
4r	4r	4r	16a
.	.	.	16aa
.	.	.	16a
.	.	.	16aa
=65	=65	=65	=65
2r	2r	2r	16f#
.	.	.	16ff#
.	.	.	16f#
.	.	.	16ff#
.	.	.	16d
.	.	.	16dd
.	.	.	16d
.	.	.	16dd
=66	=66	=66	=66
4r	4r	4r	16B
.	.	.	16b
.	.	.	16B
.	.	.	16b
[4D	16B	4f#	16dd
.	16c#	.	16cc#
.	16d	.	16b
.	16c#	.	16a
=67	=67	=67	=67
8D]	8B	8.e	16g#
.	.	.	16e
16C#	16A	.	16a
16D	16f#	16b	16dd
8E	8e	8a	8cc#
8EE	8d	8g#	8b
=68	=68	=68	=68
4AA	4e 4c#	4a	4a
4r	4r	4r	16aa
.	.	.	16gg#
.	.	.	16ff#
.	.	.	16ee
=69	=69	=69	=69
8A	8f#	8b	16dd#
.	.	.	16ff#
8G#	8g#	8b	8ee
4r	4r	4r	16ff#
.	.	.	16ee
.	.	.	16dd
.	.	.	16cc#
=70	=70	=70	=70
8F#	8d#	8g#	16b#
.	.	.	16dd#
8E	8e	8g#	8cc#
4r	4r	4r	16dd
.	.	.	16cc#
.	.	.	16b
.	.	.	16a
=71	=71	=71	=71
8D	8B	8.e	16g#
.	.	.	16b
8C#	8c#	.	16a
.	.	16cc#	16ee
8G#	8e	8b	16dd
.	.	.	16b
8A	8e	8a	16cc#
.	.	.	16a
=72	=72	=72	=72
4E	32e	8b	32g#
.	32f#	.	32a
.	16g#	.	16b
.	8B	8g#	8e
4r	4r	4r	16aa
.	.	.	16gg#
.	.	.	16ff#
.	.	.	16ee
=73	=73	=73	=73
8A	8f#	8b	16dd#
.	.	.	16ff#
8G#	8g#	8b	8ee
4r	4r	4r	16ff#
.	.	.	16ee
.	.	.	16dd
.	.	.	16cc#
=74	=74	=74	=74
8F#	8d#	8g#	16b#
.	.	.	16dd#
8E	8e	8g#	8cc#
4r	4r	4r	16dd
.	.	.	16cc#
.	.	.	16b
.	.	.	16a
=75	=75	=75	=75
8D	8B	8.e	16g#
.	.	.	16e
16C#	16c#	.	16a
16D	16f#	16b	16dd
8E	8e	8a	8cc#
8E#	8d	8g#	8b
=76	=76	=76	=76
8F#	8c#	8a	8a
4.r	4.r	4.r	8r
.	.	.	16dd
.	.	.	16cc#
.	.	.	16b
.	.	.	16a
=77	=77	=77	=77
8E	8B	8d	16g#
.	.	.	16e
16F#	4A	16c#	16a
16D	.	16f#	16dd
8E	.	8e	8cc#
8E	8G#	8e	8b
=78	=78	=78	=78
8A	8A	8e	8a
8r	8r	8r	8r
[4D	16f#	16dd	16ddd
.	16e	16cc#	16ccc#
.	16d	16b	16bb
.	16c#	16a	16aa
=79	=79	=79	=79
8D]	16B	16g#	16gg#
.	16G#	16e	16ee
16C#	16A	16a	16aa
16D	16b	16dd	16ddd
8E	8a	8cc#	8ccc#
8EE	8g#	8b	8bb
=80	=80	=80	=80
4AA	4a	4a	4aa
4r	4r	4r	4r
==	==	==	==
*-	*-	*-	*-
!!!RWG1: This file contains only pitch and duration data.
!!!RWG2: Transposing instruments are not transposed.
!!!RWG3: Spines may have incompatible meters.
!!!RWG4: Durations of rests and tied notes may be interpreted.
!!!RWG: Key is interpreted using the Humdrum key tool.
!!!AFT: stage1
!!!END: 1997/04/15
!!!KEY: 2328456814
!!!EMD: Converted from MuseData to Humdrum Dec 16, 2000, by Andreas Kornstaedt using muse2kern.
!!!EMD: Manual editing by Craig Sapp, Nov 2001
